X: 0
T: On Christmas Night True Christians Sing
Z: A. H. Brown
Z: Copyright © 2005 by Douglas D. Anderson
Z: Released To The Public Domain
L: 1/4
M: 6/8
V: P1 name="Staff"
%%MIDI program 1 19
K: G
[V: P1]  F/ | f f/ e f/ | B G/ F F/ | (G/A/) G/ (F/A/) d/ | c B/ A =G/ | (F3/4G/4) A/ A A/ | (F3/4G/4) A/ A A/ | d c/ d B/ | A G/ (F/E/) D/ | F B/ (c/d/) e/ | d c/ Bz/ | d3/4 c/4 B (^A/B/G/) | F F/ F B/ | A G/ (F3/4E/4) D/ | G F/ E A/ | F d/ (c3/4B/4) A/ | e ^G/ A d/ | c A/ B G/ | A F/ G E/ | F F/ (F3/4E/4) D/ | F F/ F d/ | (c/B/) c/ F B/ | B ^A/ B|]
w: On Christ- mas night true Chris- tians sing, To hear_ what news_ the an- gels bring; News of_ great joy, cause of_ great mirth, Good tid- ings of the Sav- iour’s birth,_ Good tid- ings of_ the Sav- iour’s birth. . . . .__ . . . The King of kings_ to us is given, The Lord of earth_ and King of heav’n; An- gels and men with joy may sing, To see and bless_ this new- born King, To see_ and bless this new- born King.

